X:1
T:Title
%%score ( 1 2 ) ( 3 4 )
L:1/8
M:4/4
K:Eb
V:1 treble nm="Choir Aahs, Staff"
V:2 treble 
V:3 bass nm="Choir Aahs, Staff-1"
V:4 bass 
V:1
 E>F [EG]2 [EG]>A [EB]2 | [EG]2 [EF]2 [DA]2 [EG]2 | [DB]>[Ec] [Fd]2 [Ec]2 [DB]2 | =A-[EA] [DB]6 | %4
w: By~Lowell~Mason * * * * *||||
 [EB]>F [Ge]2 [EG]>A [EB]2 | F[=EG] [FA]2 [_EG]2 [DF]2 | [EG]>A [EB]2 [Ec]2 BG | [DF]2 E6 |] %8
w: ||||
V:2
 x8 | x8 | x8 | .C2 z2 z4 | x8 | x8 | z4 z2 E2 | x8 |] %8
V:3
 [E,G,]>A, [E,B,]2 [E,B,]>F, [G,B,]2 | [E,B,]2 [A,,C]2 [B,,B,]2 [E,B,]2 | %2
 [B,,B,]2 B,F, [E,G,]2 F,2 | F,2 [B,,F,]6 | [E,G,]>A, [E,B,]2 [E,B,]>F, [G,B,]2 | .A,2 z2 z4 | %6
 z4 z2 .G,2 | B,A, [E,G,]6 |] %8
V:4
 x8 | x8 | z2 B,,2 z4 | x8 | x8 | C-[G,C][F,C][D,B,] [E,B,]2 [B,,B,]2 | %6
 E,>F, [E,G,]2 [A,,A,]2 B,,-[B,,B,] | B,,2 z2 z4 |] %8

